data/Images/Stratagem Icons/hd2/ems_mortar_sentry.svg

<svg id="HD2-EMS" xmlns="http://www.w3.org/2000/svg" xmlns:xlink="http://www.w3.org/1999/xlink" viewBox="0 0 126 126">
  <defs>
    <style>
      .cls-1 {
        fill: #679552;
      }

      .cls-1, .cls-2 {
        fill-rule: evenodd;
      }

      .cls-2 {
        fill: #fff;
      }
    </style>
  </defs>
  <g id="HD2-EMS-2" data-name="HD2-EMS">
    <path id="Shape_9_copy" data-name="Shape 9 copy" class="cls-1" d="M90,33s-6.007-8.3-18-15h43V33H90Zm2,24V71H44s9-22.421,9-28-9-25-9-25h9S92,17.968,92,57ZM85,92H50V84l-6-6V76H85V92Zm-47,9H50V96H93l13,16H18l8.938-11H38Z"/>
    <path class="cls-2" d="M17,50l5-20L2,56l14-1L12,75,32,49Z"/>
    <path class="cls-2" d="M40,69V80l6,6V97H27V86l6-6V69s-1.909-4.332-3.968-9.549L38,46H24.454c-0.095-.4-0.179-0.79-0.245-1.149l1.8-9.888C28.659,27.37,33,18,33,18h7s9,19.421,9,25S40,69,40,69Z"/>
  </g>
</svg>

<svg xmlns="http://www.w3.org/2000/svg" viewBox="0 0 126 126" fill="#fff">
<path fill="#679552" d="M90 33s-6-8.3-18-15h43v15H90Zm2 24v14H44s9-22.4 9-28-9-25-9-25h9s39 0 39 39Zm-7 35H50v-8l-6-6v-2h41v16Zm-47 9h12v-5h43l13 16H18l9-11h11Z"/>
<path d="m17 50 5-20L2 56l14-1-4 20 20-26Z"/>
<path d="M40 69v11l6 6v11H27V86l6-6V69s-2-4.3-4-9.5L38 46H24.5l-.3-1.1 1.8-10c2.7-7.5 7-16.9 7-16.9h7s9 19.4 9 25-9 26-9 26Z"/>
</svg>
